public/images/icons/32x32/search_32_white.svg

<svg height="32" viewBox="0 0 32 32" width="32" xmlns="http://www.w3.org/2000/svg"><path d="m21.7541899 20.7113594c1.3035382-1.5642458 2.1229051-3.575419 2.1229051-5.7728119 0-4.9162011-4.0223464-8.9385475-8.9385475-8.9385475s-8.9385475 4.0223464-8.9385475 8.9385475 4.0223464 8.9385475 8.9385475 8.9385475c2.1973929 0 4.2085661-.7821229 5.7728119-2.1229051l4.0223464 4.0223464c.1489758.1489758.3351955.2234637.5214152.2234637.1862198 0 .3724395-.0744879.5214153-.2234637.2979516-.2979516.2979516-.7448789 0-1.0428305zm-6.8156424 1.7132216c-4.0968343 0-7.44878959-3.3519553-7.44878959-7.4487896 0-4.0968342 3.35195529-7.44878954 7.44878959-7.44878954s7.4487896 3.35195534 7.4487896 7.44878954c0 4.0968343-3.3519553 7.4487896-7.4487896 7.4487896z" fill="#fff" fill-rule="evenodd" stroke="#fff" stroke-width=".5"/></svg>

<svg xmlns="http://www.w3.org/2000/svg" width="32" height="32" viewBox="0 0 32 32">
  <path fill="#FFF" fill-rule="evenodd" stroke="#FFF" stroke-width=".5" d="M21.7541899,20.7113594 C23.0577281,19.1471136 23.877095,17.1359404 23.877095,14.9385475 C23.877095,10.0223464 19.8547486,6 14.9385475,6 C10.0223464,6 6,10.0223464 6,14.9385475 C6,19.8547486 10.0223464,23.877095 14.9385475,23.877095 C17.1359404,23.877095 19.1471136,23.0949721 20.7113594,21.7541899 L24.7337058,25.7765363 C24.8826816,25.9255121 25.0689013,26 25.255121,26 C25.4413408,26 25.6275605,25.9255121 25.7765363,25.7765363 C26.0744879,25.4785847 26.0744879,25.0316574 25.7765363,24.7337058 L21.7541899,20.7113594 Z M14.9385475,22.424581 C10.8417132,22.424581 7.48975791,19.0726257 7.48975791,14.9757914 C7.48975791,10.8789572 10.8417132,7.52700186 14.9385475,7.52700186 C19.0353818,7.52700186 22.3873371,10.8789572 22.3873371,14.9757914 C22.3873371,19.0726257 19.0353818,22.424581 14.9385475,22.424581 Z"/>
</svg>
